X:1
T:Rondo Alla Christmas
T:Rondo Alla Yeehaw
T:James Kwan
C:James Kwan
%%score { ( 1 3 ) | 2 }
L:1/8
M:2/4
K:C
V:1 treble nm="Piano" snm="Pno."
V:3 treble 
V:2 bass 
V:1
!p!"^Swing" (c/^A/=A/^A/ | .^c) z (^d/c/=c/^c/ | .f) z (^f/=f/e/f/ | c'/^a/=a/^a/ c'/a/=a/^a/ | %4
 ^c'2) .^a.c' |{^g^a} .c'.[=ga].[f^g].[=ga] |{^g^a} .c'.[=ga].[f^g].[=ga] | %7
{^g^a} .c'.[=ga].[f^g].[e=g] | f2!mf! .[^cf].[^d^f] | .[f^g].[fg] (^a/g/^f/=f/ | %10
 ^d2)!p! .[^cf].[d^f] | .[f^g].[fg] (^a/g/^f/=f/ | [c^d]2)!mf! .[^A^c].[=cd] | %13
 .[^cf].[cf] (^f/=f/^d/c/ | c2)!p! .[^A^c].[=c^d] | .[^cf].[cf] (^f/=f/^d/c/ | %16
 [Ac]2)!p! (c/^A/=A/^A/ | .^c) z (^d/c/=c/^c/ | .f) z (^f/=f/e/f/ | %19
!<(! c'/^a/=a/^a/ c'/a/=a/^a/!<)! |!f!!>(! ^c'2)!>)!!p! .^a.=c' | .^c'.=c'.^a.=a | .^a.f.^f.^d | %23
 ^c2 (=c3/2^A/4c/4 | ^A2)!f! [A^a][cc'] | [dd']2 [^A^a][cc'] | [dd'][cc'][^A^a][=A=a] | %27
 [Gg][Aa][^A^a][cc'] | [Aa][Ff][^A^a][cc'] | [dd']2 [^A^a][cc'] | [dd'][cc'][^A^a][=A=a] | %31
 [Gg][cc'][Aa][Ff] | [^A^a]2!p! (d'/^d'/=d'/c'/ | ^a/c'/a/=a/ g/^a/=a/g/ | ^f/g/a/f/ d/e/f/d/ | %35
 g/!<(!^f/g/a/ ^a/=a/^a/c'/!<)! | d'/^c'/d'/c'/!>(! d'/^d'/=d'/=c'/!>)! | %37
!p! ^a/c'/a/=a/ g/^a/=a/g/ | f/g/a/f/ d/e/f/d/ | e/f/g/e/ ^c/d/e/c/ | d2)!f! (f/^d/=d/c/) | %41
 (^A/c/d/^d/ f/g/a/^a/) | (^a/=a/g/f/ f/^d/=d/c/) | (^A/c/d/^d/ f/g/a/^a/ | bc') (f/^d/=d/c/) | %45
 (^A/c/d/^d/ f/g/a/^a/) | (^a/=a/g/f/ f/^d/=d/c/) | (d/f/^A/d/ c/^d/=A/c/ | %48
 ^A2)!p! (d'/^d'/=d'/c'/ | ^a/c'/a/=a/ g/^a/=a/g/ | ^f/g/a/f/ d/e/f/d/ | g/^f/g/a/ ^a/=a/^a/c'/ | %52
 d'/!<(!^c'/d'/c'/ d'/c'/d'/b/ | ^d'/=d'/^d'/=d'/ ^d'/!<)!=d'/^d'/=d'/ | %54
 ^d'/!>(!=d'/c'/^a/ =a/^a/c'/!>)!=a/ |!p! ^a/c'/d'/g/ ^f/g/=a/f/ | g2)!f! [^A^a][cc'] | %57
 [dd']2 [^A^a][cc'] | [dd'][cc'][^A^a][=A=a] | [Gg][Aa][^A^a][cc'] | [Aa][Ff][^A^a][cc'] | %61
 [dd']2 [^A^a][cc'] | [dd'][cc'][^A^a][=A=a] | [Gg][cc'][Aa][Ff] | [^A^a]2!p! (c/A/=A/^A/ | %65
 .^c) z (^d/c/=c/^c/ | .f) z (^f/=f/e/f/ | c'/^a/=a/^a/ c'/a/=a/^a/ | ^c'2) .^a.c' | %69
{^g^a} .c'.[=ga].[f^g].[=ga] |{^g^a} .c'.[=ga].[f^g].[=ga] |{^g^a} .c'.[=ga].[f^g].[e=g] | %72
 f2!mf! .[^cf].[^d^f] | .[f^g].[fg] (^a/g/^f/=f/ | ^d2)!p! .[^cf].[d^f] | %75
 .[f^g].[fg] (^a/g/^f/=f/ | [c^d]2)!mf! .[^A^c].[=cd] | .[^cf].[cf] (^f/=f/^d/c/ | %78
 c2)!p! .[^A^c].[=c^d] | .[^cf].[cf] (^f/=f/^d/c/ | [Ac]2)!p! (c/^A/=A/^A/ | .^c) z (^d/c/=c/^c/ | %82
 .f) z (^f/=f/e/f/ | c'/^a/=a/^a/ c'/a/=a/^a/ |!f!!>(! ^c'2)!>)!!p! .^a.=c' | .^c'.=c'.^a.=a | %86
 .^a.f.^f.^d | ^c2 (=c3/2^A/4c/4 | ^A2)!f! (A/^a/c/c'/ | d/d'/) z (^A/^a/c/c'/ | %90
 d/d'/c/c'/ ^A/^a/=A/=a/ | G/g/A/a/ ^A/^a/c/c'/ | A/a/F/f/) (^A/^a/c/c'/ | d/d'/) z (^A/^a/c/c'/ | %94
 d/d'/c/c'/ ^A/^a/=A/=a/ | G/g/c/c'/ A/a/F/f/ | [^A^a]2) [Aa]2 | d2!f! !arpeggio!d'2- | %98
 d'2 !arpeggio!d'2- | d'2 (^d'/=d'/)c'/d'/ | (^d'/=d'/)c'/d'/ [g^a^d']2- | %101
 [gad']2{/^d'} .[f^a=d']{/^d'}.[fa=d'] |{/^d'} .[f^a=d']{/^d'}.[fa=d'] (c'2- | %103
 c'f') !arpeggio!d'2- | d'2 !arpeggio!d'2- | d'2 (^d'/=d'/)c'/d'/ | (^d'/=d'/)c'/d'/ [g^a^d']2- | %107
 [gad']2{/^d'} [f^a=d']2- | [fad']2{/d'} .[f=ac']{/d'}.[fac'] |{/d'}.[fac']{/d'}.[fac'] ^a2 | %110
!p!{/f^a} d'>d'{/fa} d'2- | d'2{/f^a} d'2- | d'2 ^d'/=d'/c'/d'/ | ^d'/=d'/c'/d'/ ^d'2- | %114
 d'2{/^d'} =d'{/^d'}=d' |{/^d'}=d'{/^d'}=d' (c'2- | c'f')!f! !arpeggio!d'2- | d'2 !arpeggio!d'2- | %118
 d'2!<(! (^d'/=d'/)c'/d'/ | (^d'/=d'/)c'/d'/ [g^a^d']2- | [gad']2{/^d'} [f^a=d']2- | %121
 [fad']2{/d'} .[f=ac']{/d'}.[fac'] |{/d'}.[fac']{/d'}.[fac']!<)!!ff! ([^Adf^a]2- | %123
 [Adfa][dd']) ([^A^a]2- | [Aa][ff']) ([^A^a]2- | [Aa][dd']) .[^A^a].[dd'] |.[^A^a].[ff'] .[Aa]2 | %127
 !>![^Adf^a]2 !>![Adfa]2 | z2 z2 |] %129
V:2
 z2 | ^A,[^CF][CF][CF] | ^A,[^CF][CF][CF] | ^A,[^CF] A,[CF] | ^A,[^CF][CF][CF] | F,[CF][CF][CF] | %6
 F,[CF][CF][CF] | F,[CF] C,C | F,2 z2 | ^C,^C F,F | ^G,2 z2 | ^C,^C F,F | ^G,2 z2 | ^A,,^A, ^C,^C | %14
 F,2 z2 | ^A,,^A, ^C,^C | F,2 z2 | ^A,[^CF][CF][CF] | ^A,[^CF][CF][CF] | ^A,[^CF] A,[CF] | %20
 ^F,[^A,E][A,E][A,E] | F,[^A,F] ^D,[^F,C] | ^C,[F,^A,] ^D,[^F,C] | [F,^A,][F,A,][F,=A,][F,A,] | %24
 [^A,,^A,]2 z2 |{^A,,D,F,} ^A,A,A,A, |{^A,,D,F,} ^A,A,A,A, |{^D,,G,,^A,,} ^D,D,{E,,G,,A,,} E,E, | %28
{F,,A,,C,} F,F,F,F, |{^A,,D,F,} ^A,A,A,A, |{^A,,D,F,} ^A,A,A,A, | %31
{^D,,G,,^A,,} ^D,D,{F,,=A,,C,} F,F, | ^A,,2 z2 | G,[^A,D][A,D][A,D] | A,[CD][CD][CD] | %35
 G,[^A,D][A,D][A,D] | ^F,[A,D][A,D][A,D] | G,[^A,D][A,D][A,D] | A,[DF][DF][DF] | A,[EG][EG][EG] | %40
 [DF]2 z2 | ^A,[DF][DF][DF] | C[^DF] A,[DF] | ^A,[DF][DF][DF] | F,[A,^D][A,D][A,D] | %45
 ^A,[DF][DF][DF] | C[^DF] A,[DF] | .^A,.G,.^D,.F, | .^A,,.^A, z2 | G,[^A,D][A,D][A,D] | %50
 A,[CD][CD][CD] | G,[^A,D][A,D][A,D] | D,[A,D][^G,D][=G,D] | C,[G,C][G,C][G,C] | %54
 C,[A,C][A,C][A,C] | D,[G,^A,] D,[=A,C] | [G,^A,]2 z2 |{^A,,D,F,} ^A,A,A,A, |{^A,,D,F,} ^A,A,A,A, | %59
{^D,,G,,^A,,} ^D,D,{E,,G,,A,,} E,E, |{F,,A,,C,} F,F,F,F, |{^A,,D,F,} ^A,A,A,A, | %62
{^A,,D,F,} ^A,A,A,A, |{^D,,G,,^A,,} ^D,D,{F,,=A,,C,} F,F, | ^A,,2 z2 | ^A,[^CF][CF][CF] | %66
 ^A,[^CF][CF][CF] | ^A,[^CF] A,[CF] | ^A,[^CF][CF][CF] | F,[CF][CF][CF] | F,[CF][CF][CF] | %71
 F,[CF] C,C | F,2 z2 | ^C,^C F,F | ^G,2 z2 | ^C,^C F,F | ^G,2 z2 | ^A,,^A, ^C,^C | F,2 z2 | %79
 ^A,,^A, ^C,^C | F,2 z2 | ^A,[^CF][CF][CF] | ^A,[^CF][CF][CF] | ^A,[^CF] A,[CF] | %84
 ^F,[^A,E][A,E][A,E] | F,[^A,F] ^D,[^F,C] | ^C,[F,^A,] ^D,[^F,C] | [F,^A,][F,A,][F,=A,][F,A,] | %88
 [^A,,^A,]2 z2 |{^A,,D,F,} ^A,A,A,A, |{^A,,D,F,} ^A,A,A,A, |{^D,,G,,^A,,} ^D,D,{E,,G,,A,,} E,E, | %92
{F,,A,,C,} F,F,F,F, |{^A,,D,F,} ^A,A,A,A, |{^A,,D,F,} ^A,A,A,A, | %95
{^D,,G,,^A,,} ^D,D,{F,,=A,,C,} F,F, | ^A,,2{A,,D,F,} ^A,A, |^A,A,{^A,,D,F,} A,A, | %98
 ^A,A,{^A,,D,F,} A,A, |^A,A,{^A,,D,F,} A,A, |^A,A,{^D,,G,,^A,,} ^D,D, |^D,D,{^A,,=D,F,} ^A,A, | %102
 ^A,A,{F,,A,,C,} F,F, |F,F,{^A,,D,F,} ^A,A, |^A,A,{^A,,D,F,} A,A, |^A,A,{^A,,D,F,} A,A, | %106
^A,A,{^D,,G,,^A,,} ^D,D, | ^D,D,{^A,,=D,F,} ^A,A, |^A,A,{F,,A,,C,} F,F, |F,F, (^A,/F/D/F/ | %110
 ^A,/F/D/F/ A,/F/D/F/ | ^A,/F/D/F/ A,/F/D/F/ | ^A,/F/D/F/) (A,/F/D/F/ | ^A,/F/D/F/ A,/G/^D/G/ | %114
 ^A,/G/^D/G/ A,/F/=D/F/ | ^A,/F/D/F/ F,/F/C/F/ | F,/F/C/F/){^A,,D,F,} ^A,A, |^A,A,{^A,,D,F,} A,A, | %118
^A,A,{^A,,D,F,} A,A, |^A,A,{^D,,G,,^A,,} ^D,D, |^D,D,{^A,,=D,F,} ^A,A, | ^A,A,{F,,A,,C,} F,F, | %122
F,F,{^A,,D,F,} ^A,A, |^A,A,{^A,,D,F,} A,A, |^A,A,{^A,,D,F,} A,A, |^A,A,{^A,,D,F,} A,A, | %126
{^A,,D,F,} ^A,A, .A,,2 | !>![^A,,D,F,^A,]2 !>![A,,D,F,A,]2 | z2 z2 |] %129
V:3
 x2 | x4 | x4 | x4 | x4 | x4 | x4 | x4 | x4 | x4 | c^G x2 | x4 | x4 | x4 | AF x2 | x4 | x4 | x4 | %18
 x4 | x4 | x4 | x4 | x4 | x2 x/4 x/4 x/4 x/4 x/4 x/4 x/ | x4 | x4 | x4 | x4 | x4 | x4 | x4 | x4 | %32
 x4 | x4 | x4 | x4 | x4 | x4 | x4 | x4 | x4 | x4 | x4 | x4 | x4 | x4 | x4 | x4 | x4 | x4 | x4 | %51
 x4 | x4 | x4 | x4 | x4 | x4 | x4 | x4 | x4 | x4 | x4 | x4 | x4 | x4 | x4 | x4 | x4 | x4 | x4 | %70
 x4 | x4 | x4 | x4 | c^G x2 | x4 | x4 | x4 | AF x2 | x4 | x4 | x4 | x4 | x4 | x4 | x4 | x4 | %87
 x2 x/4 x/4 x/4 x/4 x/4 x/4 x/ | x4 | x4 | x4 | x4 | x4 | x4 | x4 | x4 | x4 | d'>d' [df^a]2 | %98
 z2 [df^a]2 | z2 x2 | x4 | x4 | x2 [f=a]2- | [fa]2 [df^a]2 | z2 [df^a]2 | z2 x2 | x4 | x4 | x4 | %109
 x4 | x4 | x4 | x4 | x4 | x4 | x2 [fa]2- | [fa]2 [df^a]2 | z2 [df^a]2 | z2 x2 | x4 | x4 | x4 | x4 | %123
 x4 | x4 | x4 | x4 | x4 | x4 |] %129

